X:288
T: Der bon vivant (45b), S. 146
N: T0177
O: Luxemburg
S: Singendes Volk, Esch-Alzette 1937 posth.]
N: Esch-Alz., fff Dominik Mller, 7.6.1915
N: (45c)- Consdorf, Fam. Freylinger, geschriebenes Liederheft
N: (1848-1851)
R: Liebeslieder]
M: 2/4
L: 1/16
K: G
D2 | G2A2B2D2 | G2A2B2
D2 | G2G2BBB2 | A4z2
d2 | d2d2f2e2 | d2d2G2
G2 | A2A2d2d2 | B4z2

